X:1
T:Seadrift, 10.10.10.10 D
T:Seadrift, 10.10.10.10 D
T:Philip Paul Bliss (1838-1876)
T:Public Domain Courtesy of the Cyber Hymnal™
C:Philip Paul Bliss (1838-1876)
Z:Public Domain
Z:Courtesy of the Cyber Hymnal™
%%score ( 1 2 ) ( 3 4 )
L:1/8
M:4/4
K:F
V:1 treble 
V:2 treble 
V:3 bass 
V:4 bass 
V:1
 [FA]4 [FG]2 F2 | [CF]4 [CE]2 F2 | [EG]4 [FA]2 [GB]2 | [FA]6 z2 | [Fc]4 [EB]2 [FA]2 | %5
 [FA]4 [EG]2 F2 | [EG]4 [FG]2 [FA]2 | [EG]8 | [FA]4 [FG]2 F2 | [CG]4 [CE]2 F2 | [EG]4 [FA]2 [GB]2 | %11
 [FA]6 z2 | [Fc]4 [EB]2 [FA]2 | [Fd]4 [Fc]2 [FB]2 | ([FA]2 [CG]2) [CF]2 [CE]2 | [CF]8 | %16
 [EG]4 [EG]2 [^D^F]2 | [EG]4 [EG]2 [Gc]2 | (c2 =B2) [FA]2 [FB]2 | (c4 G4) | [EG]4 [EG]2 [^D^F]2 | %21
 [EG]4 [EG]2 [Gc]2 | (c2 =B2) [FA]2 [FB]2 | (c4 B4) | [FA]4 [FG]2 F2 | [CF]4 [CE]2 F2 | %26
 [EG]4 [FA]2 [GB]2 | [FA]6 z2 | [Fc]4 [EB]2 [FA]2 | [Fd]4 [Fc]2 [FB]2 | ([FA]2 [CG]2) [CF]2 [CE]2 | %31
 [CF]8 |] %32
V:2
 x6 F2 | x6 F2 | x8 | x8 | x8 | x6 F2 | x8 | x8 | x6 F2 | x6 F2 | x8 | x8 | x8 | x8 | x8 | x8 | %16
 x8 | x8 | F4 x4 | E8 | x8 | x8 | F4 x4 | E8 | x6 F2 | x6 F2 | x8 | x8 | x8 | x8 | x8 | x8 |] %32
V:3
 [F,C]4 [F,B,]2 [F,A,]2 | [A,C]4 [G,B,]2 [F,A,]2 | [C,C]4 [C,C]2 [C,C]2 | [F,C]6 z2 | %4
 [A,C]4 [G,C]2 [F,C]2 | [F,C]4 [C,B,]2 [D,A,]2 | [C,C]4 [G,,=B,]2 [G,,B,]2 | [C,C]8 | %8
 [F,C]4 [F,B,]2 [F,A,]2 | [A,C]4 [G,B,]2 [F,A,]2 | [C,C]4 [C,C]2 [C,C]2 | [F,C]6 z2 | %12
 [A,F]4 [G,C]2 [F,C]2 | (B,2 D2) [B,,D]2 [B,,D]2 | (C2 B,2) [C,A,]2 [C,G,]2 | [F,A,]8 | %16
 [C,C]4 [C,C]2 [C,C]2 | [C,C]4 [C,C]2 [C,E]2 | [G,D]4 [G,D]2 [G,D]2 | [C,C]8 | %20
 [C,C]4 [C,C]2 [C,C]2 | [C,C]4 [C,C]2 [C,E]2 | [G,D]4 [G,D]2 [G,D]2 | [C,C]8 | %24
 [F,C]4 [F,B,]2 [F,A,]2 | [A,C]4 [G,B,]2 [F,A,]2 | [C,C]4 [C,C]2 [C,C]2 | [F,C]6 z2 | %28
 [A,F]4 [G,C]2 F,2 | (B,2 D2) [B,,D]2 [B,,D]2 | (C2 B,2) [C,A,]2 [C,G,]2 | [F,A,]8 |] %32
V:4
 x8 | x8 | x8 | x8 | x8 | x8 | x8 | x8 | x8 | x8 | x8 | x8 | x8 | B,,4 x4 | C,4 x4 | x8 | x8 | x8 | %18
 x8 | x8 | x8 | x8 | x8 | x8 | x8 | x8 | x8 | x8 | x8 | B,,4 x4 | C,4 x4 | x8 |] %32

